static/assets/template/assets/img/icons/essential/detailed/User_male.svg

<svg height="151" viewBox="0 0 151 151" width="151" xmlns="http://www.w3.org/2000/svg"><g fill="none" fill-rule="evenodd" transform="translate(1 2)"><g fill-rule="nonzero"><path d="m20.7 121.9c5.9-2.3 13.8-5.3 24.2-9.7 3.8-1.6 6.2-5.2 6.2-9.3v-19.7c-2.3-2.8-3.7-6.2-4-9.8l-1.7-.8c-5 1.2-4.7-4.2-5.9-14.5-.5-4.3.1-5.2 2-5.8l1.6-2.1c-9.7-22-4.8-35.8 4.8-40.6-3.2-7-3.4-9.5-3.4-9.5s20.4 3.4 27.4 2c8.9-1.8 22.6.3 27.7 12.2 8.5 3.3 11.8 8.7 12.5 14.5 1.3 9.5-4.4 20-5.1 23.7 1.6.7 2.1 1.7 1.7 5.7-1.2 9.8-.9 15.9-5.9 14.5l-4.5 7.8c-.6 3.2-.5-.2-.5 22.4 0 4.1 2.5 7.7 6.2 9.3.1 0 .1 0 .2.1 36.8 15.3 41.1 13.8 43 25.3.1.6.2 1.2.3 1.9.1.6.1 1.2.2 1.8.1.8.2 1.8.3 2.8.1.9.2 1.8.3 2.8h-147.7c1.9-15.9.8-17.2 16.9-23.7"/><path d="m17.5 123.2c1-.4 2-.8 3.1-1.2"/><path d="m146.5 146.9h-123.7c-10.8 0-14.3-14.6-4.7-19.4 5.6-2.8 15.2-6.1 32.1-13.2 3.5-1.5 5.8-4.9 5.8-8.8v-21.4c-2.1-2.6-3.4-7.2-3.7-10.6l-1.6-.8c-4.7 1.1-4.3-3.9-5.5-13.7-.5-4.1.1-4.9 1.9-5.5l1.5-2c-.3-.7-.6-1.5-.9-2.2-7.8-19.1-3.2-27.4 5.3-31.8-3-6.5-3.1-8.9-3.1-8.9s19 3.2 25.5 1.9c8.3-1.7 21 .3 25.8 11.5 4.4 1.8 7.3 4.2 9.2 6.9 1 7.3-2.1 15.1-3.9 20-.6 1.5-1 2.8-1.2 3.7 1.6.7 2.1 1.7 1.7 5.7-1.2 9.8-.9 15.9-5.9 14.5l-4.5 7.8c-.3 1.5-.4 1.5-.5 3.7v18.7c0 4.1 2.5 7.7 6.2 9.3.1 0 .1 0 .2.1.8.8 1.8 1.5 2.9 1.9 10.4 4.4 18 7.3 23.7 9.6 12.7 5.1 15.2 6.7 16.4 13.8.1.6.2 1.2.3 1.9.1.6.2 1.2.2 1.8.1.8.2 1.8.3 2.8 0 .8.1 1.7.2 2.7z"/><path d="m134.4 146.9c5-7.5 2.8-14.6-5.4-23.1 12.7 5.1 15.2 6.7 16.4 13.8.1.6.2 1.2.3 1.9.1.6.2 1.2.2 1.8.1.8.2 1.8.3 2.8.1.9.2 1.8.3 2.8z" fill="#bad8ff"/><path d="m96 100.1c-4.3 1.6-8.6 2.9-13.1 3.5-4.8.6-9.8.1-14-2.1-3.7-1.9-6.4-4.8-9.9-7.2-1.9-1.3-3-3.4-3-5.7v-1.3c5.4 2.5 9.9 8.2 15.9 9.8 4.9 1.3 10.2-.3 14.4-3.2 3.8-2.6 6.8-6.1 9.7-9.7z" fill="#bad8ff"/><path d="m106.4 48.8c-1.7-1.4-3.2-3-4.6-4.8-1.9-2.6-3.5-5.6-6-7.7-4.3-3.7-10.5-3.9-16.1-4-8.8-.1-17.7-.3-26.6-.4-.5 5.6-1.5 11.3-4.5 16-.3.5-.7 1-1.1 1.5-7.8-19.1-3.2-27.4 5.3-31.8-3-6.5-3.1-8.9-3.1-8.9s19 3.2 25.5 1.9c8.3-1.7 21 .3 25.8 11.5 4.4 1.8 7.3 4.2 9.2 6.9 1.1 7.1-1.9 14.9-3.8 19.8z"/></g><g stroke-linecap="round" stroke-linejoin="round" stroke-width="3" transform="translate(0 28)"><path d="m21.8 93.6c8-3.1 17.2-6.9 23.1-9.4 3.8-1.6 6.2-5.2 6.2-9.3v-19.7"/><path d="m12.8 97.1c.2-.1.5-.2.7-.3"/><path d="m.6 118.9c1-8.6.9-13.6 4.9-17.4"/><path d="m49.4 20.3c-.1.1-.1.2-.2.3"/><path d="m104.9 23.7c.2-.7.4-2.5.2-4 0 0-.4-15.1-21.7-15.9s-23.2 3-29.8-3.1c2 3.1 1.5 8.7-.9 14.1"/><path d="m47.1 45.5c.5 4.8 2.8 9.1 6.4 12.2l15.4 10.8c3.6 3 8.8 3.1 12.5.2l14.4-13c3.7-3.1 6-7.5 6.5-12.3"/><path d="m43.1 23.8c-3.1 1-4.3 1-3.6 6.4s.8 8.8 1.6 12.1 4.3 2.4 4.3 2.4"/><path d="m148.4 118.9c-1.5-12.7-.5-17.5-13.8-22.4-9-3.3-22.6-8.9-30.5-12.2-3.8-1.6-6.2-5.2-6.2-9.3v-8.2"/><path d="m105.1 23.8c3.1 1 4.3 1 3.6 6.4s-.8 8.8-1.6 12.1-4.3 2.4-4.3 2.4"/></g><path d="m43.7 51.6c-10.5-22.8-5.6-37 4.2-42-3.2-7-3.4-9.5-3.4-9.5s20.4 3.4 27.4 2c8.9-1.8 22.6.3 27.7 12.2 7 2.8 19.7 10.1 7.8 36" stroke-linecap="round" stroke-linejoin="round" stroke-width="3"/></g></svg>

<?xml version="1.0" encoding="UTF-8"?>
<svg width="151px" height="151px" viewBox="0 0 151 151" version="1.1" xmlns="http://www.w3.org/2000/svg" xmlns:xlink="http://www.w3.org/1999/xlink">
    <!-- Generator: Sketch 51.2 (57519) - http://www.bohemiancoding.com/sketch -->
    <title>User_male</title>
    <desc>Created with Sketch.</desc>
    <defs></defs>
    <g id="Page-1" stroke="none" stroke-width="1" fill="none" fill-rule="evenodd">
        <g id="User_male" transform="translate(1.000000, 2.000000)">
            <path d="M20.7,121.9 C26.6,119.6 34.5,116.6 44.9,112.2 C48.7,110.6 51.1,107 51.1,102.9 L51.1,83.2 C48.8,80.4 47.4,77 47.1,73.4 L45.4,72.6 C40.4,73.8 40.7,68.4 39.5,58.1 C39,53.8 39.6,52.9 41.5,52.3 L43.1,50.2 C33.4,28.2 38.3,14.4 47.9,9.6 C44.7,2.6 44.5,0.1 44.5,0.1 C44.5,0.1 64.9,3.5 71.9,2.1 C80.8,0.3 94.5,2.4 99.6,14.3 C108.1,17.6 111.4,23 112.1,28.8 C113.4,38.3 107.7,48.8 107,52.5 C108.6,53.2 109.1,54.2 108.7,58.2 C107.5,68 107.8,74.1 102.8,72.7 L98.3,80.5 C97.7,83.7 97.8,80.3 97.8,102.9 C97.8,107 100.3,110.6 104,112.2 C104.1,112.2 104.1,112.2 104.2,112.3 C104.2,112.3 104.2,112.3 104.2,112.3 C141,127.6 145.3,126.1 147.2,137.6 C147.3,138.2 147.4,138.8 147.5,139.5 C147.6,140.1 147.6,140.7 147.7,141.3 C147.8,142.1 147.9,143.1 148,144.1 C148.1,145 148.2,145.9 148.3,146.9 L0.6,146.9 C2.5,131 1.4,129.7 17.5,123.2" id="Shape" class="fill-neutral" fill-rule="nonzero"></path>
            <path d="M17.5,123.2 C18.5,122.8 19.5,122.4 20.6,122" id="Shape" class="fill-neutral" fill-rule="nonzero"></path>
            <path d="M146.5,146.9 L22.8,146.9 C12,146.9 8.5,132.3 18.1,127.5 C23.7,124.7 33.3,121.4 50.2,114.3 C53.7,112.8 56,109.4 56,105.5 L56,84.1 C53.9,81.5 52.6,76.9 52.3,73.5 L50.7,72.7 C46,73.8 46.4,68.8 45.2,59 C44.7,54.9 45.3,54.1 47.1,53.5 L48.6,51.5 C48.3,50.8 48,50 47.7,49.3 C39.9,30.2 44.5,21.9 53,17.5 C50,11 49.9,8.6 49.9,8.6 C49.9,8.6 68.9,11.8 75.4,10.5 C83.7,8.8 96.4,10.8 101.2,22 C105.6,23.8 108.5,26.2 110.4,28.9 C111.4,36.2 108.3,44 106.5,48.9 C105.9,50.4 105.5,51.7 105.3,52.6 C106.9,53.3 107.4,54.3 107,58.3 C105.8,68.1 106.1,74.2 101.1,72.8 L96.6,80.6 C96.3,82.1 96.2,82.1 96.1,84.3 C96.1,86.6 96.1,91.3 96.1,103 C96.1,107.1 98.6,110.7 102.3,112.3 C102.4,112.3 102.4,112.3 102.5,112.4 C102.5,112.4 102.5,112.4 102.5,112.4 C103.3,113.2 104.3,113.9 105.4,114.3 C115.8,118.7 123.4,121.6 129.1,123.9 C141.8,129 144.3,130.6 145.5,137.7 C145.6,138.3 145.7,138.9 145.8,139.6 C145.9,140.2 146,140.8 146,141.4 C146.1,142.2 146.2,143.2 146.3,144.2 C146.3,145 146.4,145.9 146.5,146.9 Z" id="Shape" class="fill-primary-100" fill-rule="nonzero"></path>
            <path d="M134.4,146.9 C139.4,139.4 137.2,132.3 129,123.8 C141.7,128.9 144.2,130.5 145.4,137.6 C145.5,138.2 145.6,138.8 145.7,139.5 C145.8,140.1 145.9,140.7 145.9,141.3 C146,142.1 146.1,143.1 146.2,144.1 C146.3,145 146.4,145.9 146.5,146.9 L134.4,146.9 Z" id="Shape" fill="#BAD8FF" fill-rule="nonzero"></path>
            <path d="M96,100.1 C91.7,101.7 87.4,103 82.9,103.6 C78.1,104.2 73.1,103.7 68.9,101.5 C65.2,99.6 62.5,96.7 59,94.3 C57.1,93 56,90.9 56,88.6 L56,87.3 C61.4,89.8 65.9,95.5 71.9,97.1 C76.8,98.4 82.1,96.8 86.3,93.9 C90.1,91.3 93.1,87.8 96,84.2 C96,86.5 96,88.4 96,100.1 Z" id="Shape" fill="#BAD8FF" fill-rule="nonzero"></path>
            <path d="M106.4,48.8 C104.7,47.4 103.2,45.8 101.8,44 C99.9,41.4 98.3,38.4 95.8,36.3 C91.5,32.6 85.3,32.4 79.7,32.3 C70.9,32.2 62,32 53.1,31.9 C52.6,37.5 51.6,43.2 48.6,47.9 C48.3,48.4 47.9,48.9 47.5,49.4 C39.7,30.3 44.3,22 52.8,17.6 C49.8,11.1 49.7,8.7 49.7,8.7 C49.7,8.7 68.7,11.9 75.2,10.6 C83.5,8.9 96.2,10.9 101,22.1 C105.4,23.9 108.3,26.3 110.2,29 C111.3,36.1 108.3,43.9 106.4,48.8 Z" id="Shape" class="fill-primary-400" fill-rule="nonzero"></path>
            <g id="Group" transform="translate(0.000000, 28.000000)" class="stroke-primary" stroke-linecap="round" stroke-linejoin="round" stroke-width="3">
                <path d="M21.8,93.6 C29.8,90.5 39,86.7 44.9,84.2 C48.7,82.6 51.1,79 51.1,74.9 L51.1,55.2" id="Shape"></path>
                <path d="M12.8,97.1 C13,97 13.3,96.9 13.5,96.8" id="Shape"></path>
                <path d="M0.6,118.9 C1.6,110.3 1.5,105.3 5.5,101.5" id="Shape"></path>
                <path d="M49.4,20.3 C49.3,20.4 49.3,20.5 49.2,20.6" id="Shape"></path>
                <path d="M104.9,23.7 C105.1,23 105.3,21.2 105.1,19.7 C105.1,19.7 104.7,4.6 83.4,3.8 C62.1,3 60.2,6.8 53.6,0.7 C55.6,3.8 55.1,9.4 52.7,14.8" id="Shape"></path>
                <path d="M47.1,45.5 C47.6,50.3 49.9,54.6 53.5,57.7 L68.9,68.5 C72.5,71.5 77.7,71.6 81.4,68.7 L95.8,55.7 C99.5,52.6 101.8,48.2 102.3,43.4" id="Shape"></path>
                <path d="M43.1,23.8 C40,24.8 38.8,24.8 39.5,30.2 C40.2,35.6 40.3,39 41.1,42.3 C41.9,45.6 45.4,44.7 45.4,44.7" id="Shape"></path>
                <path d="M148.4,118.9 C146.9,106.2 147.9,101.4 134.6,96.5 C125.6,93.2 112,87.6 104.1,84.3 C100.3,82.7 97.9,79.1 97.9,75 L97.9,66.8" id="Shape"></path>
                <path d="M105.1,23.8 C108.2,24.8 109.4,24.8 108.7,30.2 C108,35.6 107.9,39 107.1,42.3 C106.3,45.6 102.8,44.7 102.8,44.7" id="Shape"></path>
            </g>
            <path d="M43.7,51.6 C33.2,28.8 38.1,14.6 47.9,9.6 C44.7,2.6 44.5,0.1 44.5,0.1 C44.5,0.1 64.9,3.5 71.9,2.1 C80.8,0.3 94.5,2.4 99.6,14.3 C106.6,17.1 119.3,24.4 107.4,50.3" id="Shape" class="stroke-primary" stroke-width="3" stroke-linecap="round" stroke-linejoin="round"></path>
        </g>
    </g>
</svg>
